packages/assets/static/images/icons/audio-description.svg

<svg width="24" height="24" viewBox="0 0 24 24" xmlns="http://www.w3.org/2000/svg" fill="currentColor" aria-hidden="true"> <path d="M20.9999 4.49951H2.99988C2.173 4.49951 1.49988 5.17264 1.49988 5.99951V17.9995C1.49988 18.8264 2.173 19.4995 2.99988 19.4995H20.9999C21.8268 19.4995 22.4999 18.8264 22.4999 17.9995V5.99951C22.4999 5.17264 21.8268 4.49951 20.9999 4.49951ZM20.9999 17.9995H2.99988V5.99951H20.9999V17.9995Z"/> <path d="M5.19738 15.7636C5.56769 15.9492 6.01863 15.7983 6.20331 15.4279L6.763 14.3076H10.4418L11.0014 15.4279C11.1327 15.6904 11.398 15.8423 11.6727 15.8423C11.7852 15.8423 11.8996 15.817 12.0074 15.7626C12.3777 15.577 12.5277 15.127 12.343 14.7567L9.27269 8.61607C9.14613 8.36201 8.88644 8.2017 8.60144 8.2017C8.31644 8.2017 8.05769 8.36201 7.93019 8.61607L5.63894 13.1986C5.63894 13.1986 5.63613 13.2051 5.63425 13.2089L4.85988 14.7567C4.67425 15.127 4.82519 15.5779 5.1955 15.7626L5.19738 15.7636ZM8.60331 10.6289L9.69269 12.8076H7.51394L8.60331 10.6289Z"/> <path d="M14.5302 15.8901H15.298C15.298 15.8901 15.3055 15.8901 15.3102 15.8901C18.5436 15.8395 19.4061 13.4348 19.4061 12.022C19.4061 10.3636 18.5718 9.45701 17.8714 8.98826C16.8758 8.3217 15.7405 8.24951 15.298 8.24951H14.5302C14.1158 8.24951 13.7802 8.58514 13.7802 8.99951V15.1401C13.7802 15.5545 14.1158 15.8901 14.5302 15.8901ZM15.2802 9.74951H15.298C15.7339 9.74951 17.9061 9.8592 17.9061 12.022C17.9061 12.1523 17.8855 12.8339 17.4777 13.4264C17.0493 14.0489 16.3133 14.3733 15.2914 14.3901H15.2802V9.74951Z"/> </svg>

<svg viewBox="0 0 24 24" xmlns="http://www.w3.org/2000/svg" aria-hidden="true" fill="currentColor"><path d="M21 4.5H3c-.827 0-1.5.673-1.5 1.5v12c0 .826.673 1.5 1.5 1.5h18c.827 0 1.5-.674 1.5-1.5V6c0-.827-.673-1.5-1.5-1.5M21 18H3V6h18z"/><path d="M5.197 15.764a.75.75 0 0 0 1.006-.336l.56-1.12h3.679l.56 1.12a.75.75 0 0 0 1.341-.671l-3.07-6.14a.749.749 0 0 0-1.343 0L5.64 13.198l-.005.01-.774 1.548a.75.75 0 0 0 .335 1.006zm3.406-5.135 1.09 2.179h-2.18zm5.927 5.261h.78c3.234-.05 4.096-2.455 4.096-3.868 0-1.658-.834-2.565-1.535-3.034-.995-.666-2.13-.738-2.573-.738h-.768a.75.75 0 0 0-.75.75v6.14c0 .415.336.75.75.75m.75-6.14h.018c.436 0 2.608.11 2.608 2.272 0 .13-.02.812-.428 1.404-.429.623-1.165.947-2.187.964h-.01z"/></svg>
